static/fa/svgs/solid/charging-station.svg

<svg xmlns="http://www.w3.org/2000/svg" viewBox="0 0 576 512"><!--! Font Awesome Free 6.1.1 by @fontawesome - https://fontawesome.com License - https://fontawesome.com/license/free (Icons: CC BY 4.0, Fonts: SIL OFL 1.1, Code: MIT License) Copyright 2022 Fonticons, Inc.--><path d="M256 0c35.3 0 64 28.65 64 64v192h16c48.6 0 88 39.4 88 88v32c0 13.3 10.7 24 24 24s24-10.7 24-24V252.3c-32.5-10.2-56-40.5-56-76.3v-32c0-8.8 7.2-16 16-16h16V80c0-8.84 7.2-16 16-16s16 7.16 16 16v48h32V80c0-8.84 7.2-16 16-16s16 7.16 16 16v48h16c8.8 0 16 7.2 16 16v32c0 35.8-23.5 66.1-56 76.3V376c0 39.8-32.2 72-72 72s-72-32.2-72-72v-32c0-22.1-17.9-40-40-40h-16v144c17.7 0 32 14.3 32 32s-14.3 32-32 32H32c-17.67 0-32-14.3-32-32s14.33-32 32-32V64C32 28.65 60.65 0 96 0h160zm-58.4 83.85L85.59 179.9c-5.09 4.3-6.92 11.4-4.6 17.7 2.33 6.2 8.31 10.4 14.11 10.4h58.7l-25 74.9c-2.3 6.9.3 14.4 6.3 18.4 5.9 4 13 3.5 19.3-1.2l112-96c5.1-4.3 6.9-11.4 4.6-17.7-2.3-6.2-8.3-10.4-15-10.4h-57.8l25-74.9c2.3-6.86-.3-14.36-6.3-18.38-6.8-4.01-13.9-3.55-19.3 1.13z"/></svg>

<svg xmlns="http://www.w3.org/2000/svg" viewBox="0 0 576 512"><!--! Font Awesome Free 6.1.1 by @fontawesome - https://fontawesome.com License - https://fontawesome.com/license/free (Icons: CC BY 4.0, Fonts: SIL OFL 1.1, Code: MIT License) Copyright 2022 Fonticons, Inc. --><path d="M256 0C291.3 0 320 28.65 320 64V256H336C384.6 256 424 295.4 424 344V376C424 389.3 434.7 400 448 400C461.3 400 472 389.3 472 376V252.3C439.5 242.1 416 211.8 416 176V144C416 135.2 423.2 128 432 128H448V80C448 71.16 455.2 64 464 64C472.8 64 480 71.16 480 80V128H512V80C512 71.16 519.2 64 528 64C536.8 64 544 71.16 544 80V128H560C568.8 128 576 135.2 576 144V176C576 211.8 552.5 242.1 520 252.3V376C520 415.8 487.8 448 448 448C408.2 448 376 415.8 376 376V344C376 321.9 358.1 304 336 304H320V448C337.7 448 352 462.3 352 480C352 497.7 337.7 512 320 512H32C14.33 512 0 497.7 0 480C0 462.3 14.33 448 32 448V64C32 28.65 60.65 0 96 0H256zM197.6 83.85L85.59 179.9C80.5 184.2 78.67 191.3 80.99 197.6C83.32 203.8 89.3 208 95.1 208H153.8L128.8 282.9C126.5 289.8 129.1 297.3 135.1 301.3C141 305.3 148.1 304.8 154.4 300.1L266.4 204.1C271.5 199.8 273.3 192.7 271 186.4C268.7 180.2 262.7 176 256 176H198.2L223.2 101.1C225.5 94.24 222.9 86.74 216.9 82.72C210.1 78.71 203 79.17 197.6 83.85V83.85z"/></svg>
